X: 27624
T: Moon Over Friday Harbor
R: hornpipe
M: 4/4
K: Bminor
|:g|fdBc dBBg|fdBc dGGg|fdBA GABd|ABce g2fe|
fbbf aggf|efgag2fg|fdBe cAFA|(3GBd ce dBB:|
|:c|dAeA gffd|ecAE G2Fg|fdBA GABd|ABce g2fe|
fbbf aggf|eA(3fga g2fg|fdBe cAFA|(3GBd ce dBB:|
|:c|dBfB gBfB|cada eaca|bgdg aece|fdBc dGGc|
dBfB gBfd|eA (3efg g2fg|fdBe cAFA|(3GBd ce dBB:|

